; generated by PrusaSlicer 2.4.2+x64 on 2022-07-06 at 20:12:43 UTC

; 

; external perimeters extrusion width = 0.45mm
; perimeters extrusion width = 0.45mm
; infill extrusion width = 0.45mm
; solid infill extrusion width = 0.45mm
; top infill extrusion width = 0.40mm
; first layer extrusion width = 0.42mm

M73 P0 R14
M73 Q0 S14
M201 X1000 Y1000 Z200 E5000 ; sets maximum accelerations, mm/sec^2
M203 X200 Y200 Z12 E120 ; sets maximum feedrates, mm / sec
M204 P1250 R1250 T1250 ; sets acceleration (P, T) and retract acceleration (R), mm/sec^2
M205 X8.00 Y8.00 Z0.40 E4.50 ; sets the jerk limits, mm/sec
M205 S0 T0 ; sets the minimum extruding and travel feed rate, mm/sec
M107
;TYPE:Custom
M862.3 P "MK3S" ; printer model check
M862.1 P0.4 ; nozzle diameter check
M115 U3.10.1 ; tell printer latest fw version
G90 ; use absolute coordinates
M83 ; extruder relative mode
M104 S215 ; set extruder temp
M140 S60 ; set bed temp
M190 S60 ; wait for bed temp
M109 S215 ; wait for extruder temp
G28 W ; home all without mesh bed level
G80 ; mesh bed leveling
G1 Z0.2 F720
G1 Y-3 F1000 ; go outside print area
G92 E0
G1 X60 E9 F1000 ; intro line
G1 X100 E12.5 F1000 ; intro line
G92 E0
M221 S95

; Don't change E values below. Excessive value can damage the printer.
M907 E430 ; set extruder motor current
G21 ; set units to millimeters
G90 ; use absolute coordinates
M83 ; use relative distances for extrusion
M900 K0.05 ; Filament gcode LA 1.5
M900 K30 ; Filament gcode LA 1.0
M107
;LAYER_CHANGE
;Z:0.2
;HEIGHT:0.2
;BEFORE_LAYER_CHANGE
G92 E0.0
;0.2


G1 E-.8 F2100
G1 Z.4 F720
;AFTER_LAYER_CHANGE
;0.2
G1 X126.282 Y98.711 F10800
G1 Z.2 F720
G1 E.8 F2100
M204 S800
;TYPE:Skirt/Brim
;WIDTH:0.42
G1 F1200
G1 X127.096 Y97.686 E.04102
G1 X128.573 Y96.47 E.05999
G1 X129.778 Y95.856 E.04242
G1 X130.494 Y95.705 E.02294
G1 X131.96 Y95.776 E.04603
G1 X132.324 Y95.882 E.01188
G1 X133.452 Y96.485 E.04009
G1 X134.907 Y97.701 E.05946
G1 X135.682 Y98.669 E.03887
G1 X135.816 Y98.948 E.00974
G1 X137 Y102.285 E.11101
G1 X137.538 Y104.362 E.06725
G1 X138.377 Y108.542 E.13369
G1 X138.422 Y109.568 E.0322
G1 X138.307 Y110.97 E.04409
G1 X137.768 Y114.433 E.10991
M73 Q1 S14
G1 X136.829 Y117.289 E.09425
G1 X136.366 Y118.166 E.03111
G1 X136.003 Y118.667 E.01939
M73 P1 R14
G1 X135.113 Y119.511 E.03847
G1 X134.379 Y119.941 E.02666
G1 X133.587 Y120.256 E.02675
G1 X132.708 Y120.489 E.02852
G1 X131.978 Y120.587 E.02307
G1 X130.137 Y120.592 E.05774
G1 X128.629 Y120.326 E.048
G1 X127.302 Y119.754 E.0453
G1 X126.365 Y119.071 E.03636
G1 X125.852 Y118.483 E.02447
G1 X125.488 Y117.912 E.02125
G1 X124.952 Y116.639 E.04329
G1 X124.217 Y114.324 E.07616
G1 X123.69 Y110.895 E.10878
G1 X123.584 Y108.984 E.06
G1 X123.874 Y107.183 E.05722
G1 X124.672 Y103.506 E.11797
G1 X125.579 Y100.548 E.09699
G1 X126.261 Y98.767 E.05981
M204 S1000
G1 X126.611 Y98.901 F10800
M204 S800
G1 F1200
G1 X127.336 Y97.977 E.03679
G1 X128.812 Y96.761 E.05999
G1 X129.873 Y96.221 E.03731
G1 X130.565 Y96.075 E.02217
G1 X131.854 Y96.138 E.04049
G1 X132.218 Y96.244 E.01188
G1 X133.21 Y96.774 E.03526
G1 X134.665 Y97.99 E.05946
G1 X135.346 Y98.841 E.03419
G1 X135.469 Y99.096 E.00887
G1 X136.642 Y102.405 E.11008
G1 X137.173 Y104.454 E.06636
G1 X138.006 Y108.608 E.13283
G1 X138.046 Y109.539 E.02921
G1 X137.934 Y110.919 E.04342
G1 X137.406 Y114.33 E.10822
G1 X136.601 Y116.851 E.08299
G1 X136.242 Y117.639 E.02714
G1 X135.89 Y118.188 E.02046
G1 X135.352 Y118.829 E.02622
G1 X134.763 Y119.302 E.02369
G1 X133.474 Y119.896 E.04449
G1 X131.939 Y120.212 E.04913
G1 X130.152 Y120.215 E.05605
G1 X128.74 Y119.966 E.04495
G1 X127.484 Y119.424 E.04288
G1 X126.626 Y118.799 E.03328
G1 X126.15 Y118.253 E.02272
G1 X125.82 Y117.733 E.0193
G1 X125.308 Y116.514 E.04148
G1 X124.587 Y114.252 E.07443
G1 X124.065 Y110.854 E.10779
G1 X123.961 Y108.997 E.05831
G1 X124.243 Y107.26 E.05517
G1 X125.035 Y103.606 E.11724
G1 X125.938 Y100.663 E.09651
G1 X126.59 Y98.957 E.05728
M204 S1000
G1 X126.941 Y99.09 F10800
M204 S800
G1 F1200
G1 X126.957 Y99.046 E.00148
G1 X127.575 Y98.268 E.03114
G1 X129.052 Y97.052 E.05999
G1 X129.967 Y96.586 E.0322
G1 X130.635 Y96.446 E.0214
G1 X131.748 Y96.499 E.03494
G1 X132.112 Y96.606 E.01188
G1 X132.968 Y97.063 E.03043
G1 X134.423 Y98.28 E.05946
G1 X135.123 Y99.244 E.03735
G1 X136.285 Y102.525 E.10915
G1 X136.807 Y104.547 E.06547
G1 X137.635 Y108.674 E.13197
G1 X137.67 Y109.51 E.02623
G1 X137.56 Y110.869 E.04275
G1 X137.043 Y114.227 E.10653
G1 X136.245 Y116.728 E.08233
G1 X135.587 Y117.963 E.04387
G1 X135.097 Y118.551 E.02399
G1 X134.544 Y118.995 E.02223
G1 X133.362 Y119.537 E.04079
G1 X131.9 Y119.837 E.04678
G1 X130.166 Y119.838 E.05436
G1 X128.851 Y119.606 E.04189
G1 X127.666 Y119.093 E.04047
G1 X126.887 Y118.527 E.0302
G1 X126.152 Y117.555 E.03822
G1 X125.663 Y116.388 E.03967
G1 X124.957 Y114.179 E.07271
G1 X124.44 Y110.812 E.10681
G1 X124.338 Y109.009 E.05661
G1 X124.612 Y107.338 E.05312
G1 X125.399 Y103.706 E.1165
G1 X126.297 Y100.778 E.09603
G1 X126.919 Y99.146 E.05475
M204 S1000
; printing object 1_2400_Merchant.stl id:0 copy 0
;WIPE_START
G1 F8640
G1 X126.957 Y99.046 E-.02477
G1 X127.575 Y98.268 E-.22934
G1 X129.052 Y97.052 E-.44176
G1 X129.3 Y96.926 E-.06413
;WIPE_END
G1 E-.04 F2100
G1 Z.6 F720
G1 X129.766 Y101.07 F10800
G1 Z.2 F720
G1 E.8 F2100
M204 S800
;TYPE:Perimeter
G1 F1200
G1 X130.024 Y101.07 E.0081
G1 X130.674 Y100.103 E.03654
G1 X131.001 Y99.697 E.01635
G1 X131.617 Y100.496 E.03164
G1 X131.984 Y101.066 E.02124
G1 X132.253 Y101.07 E.00843
M73 Q2 S14
G1 X132.314 Y101.281 E.00692
G1 X132.46 Y101.556 E.00974
G1 X132.647 Y102.239 E.02221
G1 X132.766 Y102.411 E.00655
G1 X133.236 Y103.594 E.03993
G1 X133.654 Y105.208 E.05227
G1 X134.414 Y108.763 E.11398
G1 X134.465 Y109.298 E.01686
M73 P2 R14
G1 X134.421 Y110.46 E.03647
G1 X134.265 Y111.294 E.02658
G1 X134.087 Y111.979 E.02221
G1 X133.768 Y113.487 E.04831
G1 X133.762 Y113.607 E.0038
G1 X133.371 Y115.017 E.04586
G1 X133.199 Y115.361 E.01207
G1 X133.151 Y115.553 E.00621
G1 X133.086 Y115.661 E.00397
G1 X133.013 Y115.854 E.00646
G1 X132.93 Y115.979 E.0047
G1 X132.791 Y116.107 E.00592
G1 X132.555 Y116.282 E.00923
G1 X132.356 Y116.364 E.00673
G1 X132.076 Y116.442 E.00911
G1 X131.657 Y116.509 E.01332
G1 X130.975 Y116.54 E.02139
G1 X130.318 Y116.504 E.02064
G1 X129.937 Y116.445 E.01208
G1 X129.528 Y116.313 E.01346
G1 X129.225 Y116.138 E.01098
G1 X129.077 Y115.977 E.00686
G1 X128.937 Y115.724 E.00908
G1 X128.751 Y115.252 E.01591
G1 X128.626 Y114.998 E.00886
G1 X128.295 Y113.838 E.03784
G1 X128.121 Y112.756 E.03435
G1 X128.014 Y112.415 E.0112
G1 X127.825 Y111.664 E.0243
G1 X127.585 Y110.452 E.03872
G1 X127.529 Y109.42 E.03241
G1 X127.577 Y108.9 E.01637
G1 X127.642 Y108.482 E.01326
G1 X127.898 Y107.37 E.03577
G1 X127.951 Y107.265 E.00371
G1 X128.165 Y106.1 E.03713
G1 X128.424 Y104.917 E.03797
G1 X128.708 Y103.894 E.03329
G1 X128.827 Y103.59 E.01024
G1 X128.95 Y103.068 E.01681
G1 X129.135 Y102.612 E.01542
G1 X129.499 Y101.938 E.02403
G1 X129.458 Y101.796 E.00463
G1 X129.742 Y101.126 E.02283
M204 S1000
G1 X129.489 Y100.693 F10800
M204 S800
;TYPE:External perimeter
G1 F1200
G1 X129.823 Y100.693 E.01047
G1 X130.37 Y99.879 E.03075
G1 X130.727 Y99.436 E.01784
G1 X130.835 Y99.332 E.00471
G1 X131.1 Y99.285 E.00843
G1 X131.14 Y99.302 E.00137
G1 X131.354 Y99.516 E.00949
G1 X131.927 Y100.281 E.02996
G1 X132.191 Y100.692 E.01532
G1 X132.537 Y100.697 E.01083
G1 X132.665 Y101.139 E.01443
G1 X132.813 Y101.416 E.00984
G1 X132.991 Y102.069 E.02122
G1 X133.113 Y102.261 E.00714
G1 X133.595 Y103.477 E.04101
G1 X134.022 Y105.125 E.05339
G1 X134.788 Y108.713 E.11501
G1 X134.843 Y109.287 E.01811
G1 X134.796 Y110.502 E.03812
G1 X134.634 Y111.376 E.02785
G1 X134.454 Y112.066 E.02235
G1 X134.143 Y113.536 E.04712
G1 X134.136 Y113.67 E.00422
G1 X133.728 Y115.147 E.04803
G1 X133.555 Y115.492 E.01213
G1 X133.504 Y115.699 E.00666
G1 X133.427 Y115.827 E.00468
G1 X133.35 Y116.028 E.00674
G1 X133.218 Y116.226 E.00748
G1 X133.031 Y116.398 E.00796
G1 X132.741 Y116.613 E.01133
G1 X132.479 Y116.721 E.0089
G1 X132.157 Y116.811 E.01048
G1 X131.695 Y116.884 E.01467
G1 X130.974 Y116.917 E.02264
G1 X130.278 Y116.88 E.02183
G1 X129.85 Y116.813 E.01361
G1 X129.374 Y116.66 E.01566
G1 X128.997 Y116.441 E.01367
G1 X128.76 Y116.185 E.01093
G1 X128.595 Y115.884 E.01075
G1 X128.406 Y115.404 E.01617
G1 X128.273 Y115.135 E.00943
G1 X127.926 Y113.919 E.03962
G1 X127.753 Y112.843 E.03418
G1 X127.651 Y112.518 E.01069
G1 X127.456 Y111.746 E.02495
G1 X127.21 Y110.499 E.03986
G1 X127.151 Y109.413 E.0341
G1 X127.202 Y108.854 E.01761
G1 X127.271 Y108.411 E.01406
G1 X127.54 Y107.242 E.03762
G1 X127.59 Y107.143 E.00345
G1 X127.796 Y106.026 E.03563
G1 X128.058 Y104.826 E.0385
G1 X128.35 Y103.774 E.03422
G1 X128.466 Y103.477 E.01001
G1 X128.59 Y102.953 E.01688
G1 X128.793 Y102.451 E.01698
G1 X129.091 Y101.9 E.01966
G1 X129.063 Y101.811 E.00292
G1 X129.101 Y101.672 E.0045
G1 X129.454 Y100.84 E.02837
G1 X129.475 Y100.752 E.00284
M204 S1000
G1 X129.755 Y100.895 F10800
;WIPE_START
G1 F8640
G1 X129.823 Y100.693 E-.08146
G1 X130.37 Y99.879 E-.22644
G1 X130.727 Y99.436 E-.13135
G1 X130.835 Y99.332 E-.03469
G1 X131.1 Y99.285 E-.06209
G1 X131.14 Y99.302 E-.0101
G1 X131.354 Y99.516 E-.06986
G1 X131.728 Y100.015 E-.144
;WIPE_END
G1 E-.04 F2100
G1 Z.6 F720
G1 X130.667 Y100.316 F10800
G1 Z.2 F720
G1 E.8 F2100
M204 S800
;TYPE:Solid infill
;WIDTH:0.427536
G1 F1200
G1 X132.265 Y101.913 E.07225
G1 X132.387 Y102.361 E.01483
G1 X132.516 Y102.545 E.0072
G1 X132.623 Y102.815 E.00928
G1 X130.571 Y100.764 E.09279
G1 X130.352 Y101.089 E.01253
G1 X132.974 Y103.711 E.11859
G1 X133.165 Y104.445 E.02425
G1 X130.073 Y101.353 E.13983
G1 X129.953 Y101.353 E.00383
G1 X129.827 Y101.651 E.01034
G1 X133.355 Y105.179 E.15957
G1 X133.492 Y105.86 E.02223
G1 X129.733 Y102.101 E.17004
G1 X129.542 Y102.454 E.01284
G1 X133.648 Y106.56 E.18571
G1 X133.804 Y107.26 E.02292
G1 X129.358 Y102.814 E.20106
G1 X129.208 Y103.208 E.01348
G1 X133.959 Y107.959 E.2149
G1 X134.108 Y108.652 E.02266
G1 X129.104 Y103.647 E.22634
G1 X128.959 Y104.047 E.01358
G1 X134.178 Y109.266 E.23607
G1 X134.163 Y109.795 E.01692
G1 X128.841 Y104.472 E.24073
G1 X128.722 Y104.898 E.01413
G1 X134.143 Y110.319 E.24517
G1 X134.139 Y110.429 E.00352
G1 X134.071 Y110.791 E.01178
G1 X128.621 Y105.34 E.24652
G1 X128.523 Y105.787 E.01461
M73 Q3 S14
G1 X133.985 Y111.249 E.24703
G1 X133.873 Y111.68 E.01426
M73 P3 R14
G1 X128.428 Y106.235 E.24626
G1 X128.343 Y106.695 E.01494
G1 X133.768 Y112.12 E.24536
G1 X133.673 Y112.569 E.01468
G1 X128.259 Y107.154 E.24489
G1 X128.222 Y107.355 E.00655
G1 X128.166 Y107.467 E.00399
G1 X128.14 Y107.579 E.00368
G1 X133.578 Y113.018 E.24598
G1 X133.486 Y113.469 E.01474
G1 X128.038 Y108.021 E.2464
G1 X127.936 Y108.464 E.01451
G1 X133.384 Y113.911 E.24639
G1 X133.266 Y114.337 E.01414
G1 X127.858 Y108.929 E.24459
G1 X127.813 Y109.428 E.01601
G1 X133.148 Y114.763 E.2413
G1 X133.106 Y114.915 E.00503
G1 X132.989 Y115.148 E.00835
G1 X127.844 Y110.003 E.2327
G1 X127.867 Y110.417 E.01326
G1 X127.904 Y110.607 E.00619
G1 X132.832 Y115.535 E.22288
G1 X132.76 Y115.724 E.00648
G1 X132.627 Y115.873 E.0064
G1 X128.038 Y111.285 E.20753
G1 X128.198 Y111.989 E.02309
G1 X132.293 Y116.084 E.18521
G1 X132.016 Y116.165 E.00925
G1 X131.856 Y116.191 E.00517
G1 X128.405 Y112.74 E.15607
G1 X128.509 Y113.388 E.02099
G1 X131.36 Y116.239 E.12895
G1 X130.826 Y116.248 E.0171
G1 X128.659 Y114.081 E.09802
G1 X128.876 Y114.842 E.02531
G1 X130.239 Y116.206 E.06167
G1 X130.003 Y116.169 E.00766
G1 X129.644 Y116.053 E.01204
G1 X129.403 Y115.914 E.0089
G1 X128.958 Y115.469 E.02013
M204 S1000
; stop printing object 1_2400_Merchant.stl id:0 copy 0
M106 S84.15
;LAYER_CHANGE
;Z:0.35
;HEIGHT:0.15
;BEFORE_LAYER_CHANGE
G92 E0.0
;0.35


;WIPE_START
G1 F8640
G1 X129.403 Y115.914 E-.14536
G1 X129.644 Y116.053 E-.06425
G1 X130.003 Y116.169 E-.08695
G1 X130.239 Y116.206 E-.05534
G1 X128.99 Y114.956 E-.4081
;WIPE_END
G1 E-.04 F2100
G1 Z.6 F720
;AFTER_LAYER_CHANGE
;0.35
M73 P3 R13
G1 X124.836 Y116.275 F10800
G1 Z.35 F720
G1 E.8 F2100
;TYPE:Skirt/Brim
;WIDTH:0.42
G1 F2113
G1 X124.217 Y114.324 E.04951
G1 X123.69 Y110.895 E.08391
G1 X123.584 Y108.984 E.04628
G1 X123.874 Y107.183 E.04414
G1 X124.672 Y103.506 E.09099
G1 X125.579 Y100.548 E.07481
G1 X126.282 Y98.711 E.04759
G1 X127.096 Y97.686 E.03164
G1 X128.573 Y96.47 E.04627
G1 X129.778 Y95.856 E.03272
G1 X130.494 Y95.705 E.01769
G1 X131.96 Y95.776 E.0355
G1 X132.324 Y95.882 E.00917
G1 X133.452 Y96.485 E.03092
G1 X134.907 Y97.701 E.04586
G1 X135.682 Y98.669 E.02998
G1 X135.816 Y98.948 E.00751
G1 X137 Y102.285 E.08563
G1 X137.538 Y104.362 E.05187
G1 X138.377 Y108.542 E.10312
G1 X138.422 Y109.568 E.02483
M73 Q3 S13
G1 X138.307 Y110.97 E.034
G1 X137.768 Y114.433 E.08478
G1 X136.829 Y117.289 E.0727
G1 X136.366 Y118.166 E.024
G1 X136.003 Y118.667 E.01495
G1 X135.113 Y119.511 E.02967
G1 X134.379 Y119.941 E.02056
G1 X133.587 Y120.256 E.02063
G1 X132.708 Y120.489 E.022
G1 X131.978 Y120.587 E.0178
G1 X130.137 Y120.592 E.04453
G1 X128.629 Y120.326 E.03703
G1 X127.302 Y119.754 E.03494
G1 X126.365 Y119.071 E.02805
G1 X125.852 Y118.483 E.01887
G1 X125.488 Y117.912 E.01639
G1 X124.952 Y116.639 E.03339
G1 X124.855 Y116.333 E.00778
G1 X125.213 Y116.218 F10800
G1 F2113
G1 X124.587 Y114.252 E.04992
G1 X124.065 Y110.854 E.08315
G1 X123.961 Y108.997 E.04497
M73 Q4 S13
G1 X124.243 Y107.26 E.04255
G1 X125.035 Y103.606 E.09043
G1 X125.938 Y100.663 E.07444
G1 X126.62 Y98.878 E.04621
M73 P4 R13
G1 X127.336 Y97.977 E.02783
G1 X128.812 Y96.761 E.04627
G1 X129.873 Y96.221 E.02878
G1 X130.565 Y96.075 E.0171
G1 X131.854 Y96.138 E.03123
G1 X132.218 Y96.244 E.00917
G1 X133.21 Y96.774 E.0272
G1 X134.665 Y97.99 E.04586
G1 X135.346 Y98.841 E.02637
G1 X135.469 Y99.096 E.00684
G1 X136.642 Y102.405 E.08491
G1 X137.173 Y104.454 E.05119
G1 X138.006 Y108.608 E.10246
G1 X138.046 Y109.539 E.02253
G1 X137.934 Y110.919 E.03349
G1 X137.406 Y114.33 E.08347
G1 X136.601 Y116.851 E.06401
G1 X136.242 Y117.639 E.02094
G1 X135.89 Y118.188 E.01578
G1 X135.352 Y118.829 E.02023
G1 X134.763 Y119.302 E.01828
G1 X133.474 Y119.896 E.03432
G1 X131.939 Y120.212 E.0379
G1 X130.152 Y120.215 E.04323
G1 X128.74 Y119.966 E.03467
G1 X127.484 Y119.424 E.03308
G1 X126.626 Y118.799 E.02567
G1 X126.15 Y118.253 E.01753
G1 X125.82 Y117.733 E.01489
G1 X125.308 Y116.514 E.03199
G1 X125.232 Y116.275 E.00605
G1 X125.59 Y116.161 F10800
G1 F2113
G1 X124.957 Y114.179 E.05031
G1 X124.44 Y110.812 E.08238
G1 X124.338 Y109.009 E.04367
G1 X124.612 Y107.338 E.04097
G1 X125.399 Y103.706 E.08987
G1 X126.297 Y100.778 E.07407
G1 X126.957 Y99.046 E.04483
G1 X127.575 Y98.268 E.02402
G1 X129.052 Y97.052 E.04627
G1 X129.967 Y96.586 E.02484
G1 X130.635 Y96.446 E.0165
G1 X131.748 Y96.499 E.02695
G1 X132.112 Y96.606 E.00917
G1 X132.968 Y97.063 E.02347
G1 X134.423 Y98.28 E.04586
G1 X135.123 Y99.244 E.02881
G1 X136.285 Y102.525 E.08419
G1 X136.807 Y104.547 E.0505
G1 X137.635 Y108.674 E.10179
G1 X137.67 Y109.51 E.02023
G1 X137.56 Y110.869 E.03297
G1 X137.043 Y114.227 E.08217
G1 X136.245 Y116.728 E.0635
G1 X135.587 Y117.963 E.03384
G1 X135.097 Y118.551 E.0185
G1 X134.544 Y118.995 E.01715
G1 X133.362 Y119.537 E.03146
G1 X131.9 Y119.837 E.03608
G1 X130.166 Y119.838 E.04193
G1 X128.851 Y119.606 E.03231
G1 X127.666 Y119.093 E.03121
G1 X126.887 Y118.527 E.02329
G1 X126.152 Y117.555 E.02948
G1 X125.663 Y116.388 E.0306
G1 X125.609 Y116.218 E.00432
; printing object 1_2400_Merchant.stl id:0 copy 0
;WIPE_START
G1 F8640
G1 X124.957 Y114.179 E-.49422
G1 X124.782 Y113.041 E-.26578
;WIPE_END
G1 E-.04 F2100
G1 Z.75 F720
G1 X132.046 Y100.83 F10800
G1 Z.35 F720
G1 E.8 F2100
M204 S800
;TYPE:Perimeter
;WIDTH:0.45
G1 F1500
G1 X132.437 Y100.83 E.01019
G1 X132.663 Y101.442 E.01698
G1 X132.871 Y102.223 E.02107
G1 X132.959 Y102.371 E.00447
G1 X133.06 Y102.614 E.00687
G1 X133.414 Y103.553 E.02615
G1 X133.841 Y105.22 E.04483
G1 X134.238 Y107.169 E.05183
G1 X134.474 Y108.175 E.02692
G1 X134.62 Y109.021 E.02236
G1 X134.655 Y109.308 E.00754
G1 X134.561 Y110.506 E.03132
G1 X134.341 Y111.631 E.02985
G1 X134.156 Y112.395 E.02048
G1 X133.842 Y113.946 E.04124
G1 X133.905 Y113.946 E.00166
